;FLAVOR:Marlin
;TIME:7759
;Filament used: 5.79192m
;Layer height: 0.2
;MINX:78.422
;MINY:66.35
;MINZ:0.2
;MAXX:156.157
;MAXY:153.725
;MAXZ:38
;TARGET_MACHINE.NAME:Creality Ender-5
;Generated with Cura_SteamEngine 5.9.0
M140 S50
M105
M190 S50
M104 S200
M105
M109 S200
M82 ;absolute extrusion mode
M201 X500.00 Y500.00 Z100.00 E5000.00 ;Setup machine max acceleration
M203 X500.00 Y500.00 Z10.00 E50.00 ;Setup machine max feedrate
M204 P500.00 R1000.00 T500.00 ;Setup Print/Retract/Travel acceleration
M205 X8.00 Y8.00 Z0.40 E5.00 ;Setup Jerk
M220 S100 ;Reset Feedrate
M221 S100 ;Reset Flowrate

G28 ;Home

G92 E0 ;Reset Extruder
G1 Z2.0 F3000 ;Move Z Axis up
G1 X10.1 Y20 Z0.28 F5000.0 ;Move to start position
G1 X10.1 Y200.0 Z0.28 F1500.0 E15 ;Draw the first line
G1 X10.4 Y200.0 Z0.28 F5000.0 ;Move to side a little
G1 X10.4 Y20 Z0.28 F1500.0 E30 ;Draw the second line
G92 E0 ;Reset Extruder
G1 Z2.0 F3000 ;Move Z Axis up

G92 E0
G92 E0
G1 F2700 E-5
;LAYER_COUNT:190
;LAYER:0
M107
G0 F6000 X134.778 Y116.195 Z0.2
;TYPE:SKIRT
G1 F2700 E0
G1 F1200 X135.567 Y115.363 E0.03814
G1 X135.688 Y115.275 E0.04311
G1 X134.985 Y112.869 E0.12648
G1 X134.969 Y112.531 E0.13774
G1 X135.014 Y112.321 E0.14488
G1 X134.951 Y112.109 E0.15224
G1 X134.933 Y111.718 E0.16526
G1 X135.03 Y111.388 E0.1767
G1 X134.778 Y111.137 E0.18853
G1 X134.778 Y116.195 E0.35675
G1 F2700 E-4.64325
G0 F6000 X134.778 Y123.327
G1 F2700 E0.35675
G1 F1200 X135.288 Y122.789 E0.38141
G1 X135.096 Y122.118 E0.40462
G1 X134.778 Y121.801 E0.41956
G1 X134.778 Y123.327 E0.47031
G1 F2700 E-4.52969
G0 F6000 X137.439 Y145.112
G1 F2700 E0.47031
G1 F1200 X137.324 Y145.522 E0.48448
G1 X136.352 Y147.36 E0.55363
G1 X132.741 Y150.904 E0.72191
G1 X131.128 Y152.097 E0.78864
G1 X125.888 Y153.564 E0.96962
G1 X123.604 Y153.725 E1.04578
G1 X118.489 Y152.228 E1.22304
G1 X116.673 Y151.249 E1.29166
G1 X112.9 Y147.476 E1.46913
G1 X111.793 Y145.751 E1.5373
G1 X111.208 Y143.735 E1.60712
G1 X109.305 Y141.832 E1.69663
G1 X108.163 Y140.054 E1.76692
G1 X107.183 Y136.711 E1.88278
G1 X107.154 Y136.414 E1.89271
G1 X106.547 Y135.764 E1.92229
G1 X105.335 Y133.733 E2.00095
G1 X105.053 Y132.017 E2.05879
G1 X104.996 Y123.234 E2.35092
G1 X93.508 Y124.416 E2.73503
G1 X92.527 Y124.434 E2.76767
G1 X92.021 Y124.415 E2.78451
G1 X90.363 Y124.225 E2.84001
G1 X89.805 Y124.117 E2.85892
G1 X88.344 Y123.721 E2.90926
G1 X87.582 Y123.448 E2.93619
G1 X86.325 Y122.891 E2.98191
G1 X85.877 Y122.654 E2.99877
G1 X84.512 Y121.807 E3.0522
G1 X84.092 Y121.499 E3.06952
G1 X82.858 Y120.434 E3.12374
G1 X82.355 Y119.929 E3.14745
G1 X81.433 Y118.86 E3.1944
G1 X81.039 Y118.323 E3.21655
G1 X80.251 Y117.06 E3.26606
G1 X79.918 Y116.43 E3.28977
G1 X79.377 Y115.195 E3.33461
G1 X79.106 Y114.42 E3.36192
G1 X78.745 Y113.085 E3.40791
G1 X78.629 Y112.493 E3.42798
G1 X78.445 Y110.919 E3.48069
G1 X78.422 Y110.415 E3.49747
G1 X78.471 Y108.849 E3.54958
G1 X78.537 Y108.219 E3.57065
G1 X78.734 Y107.085 E3.60893
G1 X79.097 Y105.673 E3.65742
G1 X79.283 Y105.125 E3.67667
G1 X79.882 Y103.722 E3.72741
G1 X80.223 Y103.067 E3.75197
G1 X80.792 Y102.135 E3.78829
G1 X81.596 Y101.014 E3.83417
G1 X81.959 Y100.581 E3.85296
G1 X82.93 Y99.581 E3.89932
G1 X83.858 Y98.765 E3.94042
G1 X84.391 Y98.361 E3.96267
G1 X85.638 Y97.558 E4.012
G1 X86.415 Y97.14 E4.04134
G1 X87.33 Y96.727 E4.07473
G1 X88.611 Y96.266 E4.12001
G1 X89.428 Y96.044 E4.14817
G1 X90.627 Y95.809 E4.18881
G1 X91.67 Y95.687 E4.22374
G1 X92.764 Y95.642 E4.26015
G1 X93.754 Y95.673 E4.2931
G1 X104.978 Y96.838 E4.66842
G1 X104.978 Y88.185 E4.95622
G1 X105.444 Y86.289 E5.02115
G1 X106.464 Y84.322 E5.09485
G1 X106.67 Y84.098 E5.10497
G1 X106.542 Y82.3 E5.16492
G1 X107.62 Y78.587 E5.29352
G1 X108.538 Y76.833 E5.35936
G1 X109.146 Y76.195 E5.38868
G1 X109.593 Y74.655 E5.44201
G1 X110.458 Y72.991 E5.50439
G1 X114.224 Y69.022 E5.68636
G1 X116.126 Y67.88 E5.76015
G1 X121.009 Y66.512 E5.92881
G1 X123.216 Y66.35 E6.00242
G1 X128.464 Y67.825 E6.18373
G1 X130.357 Y68.812 E6.25474
G1 X134.089 Y72.739 E6.43492
G1 X135.111 Y74.35 E6.49838
G1 X135.278 Y74.922 E6.5182
G1 X136.931 Y76.656 E6.59788
G1 X137.962 Y78.289 E6.66211
G1 X138.963 Y81.731 E6.78133
G1 X140.461 Y81.622 E6.83129
G1 X144.362 Y82.721 E6.96609
G1 X145.956 Y83.59 E7.02647
G1 X146.187 Y83.76 E7.03601
G1 X148.077 Y84.288 E7.10128
G1 X150.031 Y85.304 E7.17453
G1 X153.673 Y89.145 E7.35058
G1 X154.671 Y90.714 E7.41243
G1 X156.13 Y95.692 E7.58496
G1 X156.132 Y98.045 E7.66322
G1 X154.78 Y102.885 E7.83036
G1 X153.845 Y104.656 E7.89697
G1 X153.682 Y104.842 E7.9052
G1 X154.688 Y106.425 E7.96758
G1 X156.155 Y111.429 E8.14102
G1 X156.157 Y113.778 E8.21915
G1 X154.802 Y118.631 E8.38673
G1 X154.221 Y119.73 E8.42808
G1 X154.67 Y120.433 E8.45582
G1 X156.13 Y125.414 E8.62846
G1 X156.132 Y127.767 E8.70672
G1 X154.781 Y132.605 E8.87379
G1 X153.811 Y134.442 E8.94289
G1 X150.275 Y137.906 E9.10752
G1 X148.663 Y139.093 E9.17411
G1 X143.556 Y140.524 E9.35051
G1 X141.272 Y140.685 E9.42666
G1 X140.394 Y140.428 E9.45709
G1 X140.054 Y141.636 E9.49883
G1 X139.091 Y143.46 E9.56743
G1 X137.439 Y145.112 E9.64514
G0 F6000 X136.951 Y145.37
G1 F1200 X136.026 Y147.12 E9.71097
G1 X132.503 Y150.582 E9.87526
G1 X130.948 Y151.732 E9.93958
G1 X125.82 Y153.168 E10.1167
G1 X123.648 Y153.321 E10.18912
G1 X118.642 Y151.856 E10.36261
G1 X116.915 Y150.925 E10.42786
G1 X113.214 Y147.224 E10.60194
G1 X112.161 Y145.583 E10.66679
G1 X111.563 Y143.524 E10.73811
G1 X109.619 Y141.58 E10.82955
G1 X108.53 Y139.885 E10.89656
G1 X107.567 Y136.599 E11.01044
G1 X107.543 Y136.245 E11.02225
G1 X106.868 Y135.522 E11.05514
G1 X105.718 Y133.595 E11.12978
G1 X105.448 Y131.952 E11.18516
G1 X105.393 Y122.791 E11.48986
G1 X93.5 Y124.016 E11.88752
G1 X92.542 Y124.034 E11.91939
G1 X92.036 Y124.015 E11.93623
G1 X90.439 Y123.832 E11.98969
G1 X89.881 Y123.724 E12.0086
G1 X88.479 Y123.344 E12.05691
G1 X87.717 Y123.071 E12.08383
G1 X86.512 Y122.537 E12.12767
G1 X86.064 Y122.3 E12.14453
G1 X84.749 Y121.484 E12.196
G1 X84.329 Y121.176 E12.21332
G1 X83.141 Y120.151 E12.26551
G1 X82.658 Y119.667 E12.28825
G1 X81.756 Y118.623 E12.33414
G1 X81.362 Y118.086 E12.35629
G1 X80.605 Y116.873 E12.40385
G1 X80.272 Y116.243 E12.42755
G1 X79.755 Y115.063 E12.4704
G1 X79.484 Y114.288 E12.49771
G1 X79.138 Y113.008 E12.54181
G1 X79.022 Y112.416 E12.56187
G1 X78.845 Y110.901 E12.6126
G1 X78.822 Y110.397 E12.62938
G1 X78.869 Y108.891 E12.6795
G1 X78.935 Y108.261 E12.70057
G1 X79.128 Y107.154 E12.73794
G1 X79.476 Y105.802 E12.78437
G1 X79.662 Y105.254 E12.80362
G1 X80.237 Y103.907 E12.85233
G1 X80.578 Y103.252 E12.8769
G1 X81.133 Y102.344 E12.91229
G1 X81.903 Y101.271 E12.95622
G1 X82.266 Y100.838 E12.97501
G1 X83.194 Y99.881 E13.01935
G1 X84.1 Y99.084 E13.05948
G1 X84.633 Y98.68 E13.08173
G1 X85.828 Y97.91 E13.12901
G1 X86.58 Y97.505 E13.15742
G1 X87.495 Y97.092 E13.19081
G1 X88.716 Y96.652 E13.23397
G1 X89.505 Y96.437 E13.26117
G1 X90.704 Y96.202 E13.30181
G1 X91.686 Y96.087 E13.33469
G1 X92.78 Y96.042 E13.37111
G1 X93.713 Y96.071 E13.40216
G1 X105.378 Y97.282 E13.79222
G1 X105.378 Y88.231 E14.09326
G1 X105.82 Y86.432 E14.15488
G1 X106.819 Y84.506 E14.22704
G1 X107.082 Y84.26 E14.23902
G1 X106.946 Y82.343 E14.30294
G1 X107.993 Y78.736 E14.42786
G1 X108.867 Y77.067 E14.49052
G1 X109.503 Y76.4 E14.52117
G1 X109.965 Y74.807 E14.57634
G1 X110.788 Y73.224 E14.63568
G1 X114.475 Y69.338 E14.81385
G1 X116.287 Y68.25 E14.88414
G1 X121.077 Y66.908 E15.04959
G1 X123.176 Y66.754 E15.1196
G1 X128.314 Y68.198 E15.29711
G1 X130.113 Y69.136 E15.36459
G1 X133.773 Y72.988 E15.54132
G1 X134.743 Y74.517 E15.60154
G1 X134.921 Y75.128 E15.62271
G1 X136.615 Y76.905 E15.70436
G1 X137.594 Y78.455 E15.76534
G1 X138.571 Y81.8 E15.88124
G1 X138.6 Y82.159 E15.89322
G1 X140.421 Y82.026 E15.95395
G1 X144.209 Y83.093 E16.08484
G1 X145.764 Y83.941 E16.14375
G1 X146.006 Y84.125 E16.15386
G1 X147.929 Y84.662 E16.22027
G1 X149.788 Y85.628 E16.28995
G1 X153.356 Y89.392 E16.46245
G1 X154.302 Y90.879 E16.52107
G1 X155.73 Y95.751 E16.68993
G1 X155.732 Y97.991 E16.76443
G1 X154.407 Y102.734 E16.92822
G1 X153.491 Y104.469 E16.99348
G1 X153.119 Y104.841 E17.01098
G1 X153.411 Y105.163 E17.02543
G1 X154.32 Y106.593 E17.08179
G1 X155.755 Y111.488 E17.25145
G1 X155.757 Y113.724 E17.32582
G1 X154.429 Y118.48 E17.49006
G1 X153.759 Y119.748 E17.53776
G1 X154.301 Y120.598 E17.57129
G1 X155.73 Y125.473 E17.74025
G1 X155.732 Y127.713 E17.81475
G1 X154.408 Y132.454 E17.97847
G1 X153.486 Y134.2 E18.04415
G1 X149.995 Y137.62 E18.20669
G1 X148.485 Y138.728 E18.26898
G1 X143.488 Y140.128 E18.44158
G1 X141.316 Y140.281 E18.514
G1 X140.118 Y139.93 E18.55552
G1 X139.681 Y141.485 E18.60925
G1 X138.765 Y143.22 E18.6745
G1 X137.082 Y144.903 E18.75367
G1 X136.951 Y145.37 E18.7698
G0 F6000 X136.578 Y145.219
G1 F1200 X135.701 Y146.878 E18.83221
G1 X132.265 Y150.26 E18.99257
G1 X130.768 Y151.367 E19.05449
G1 X125.752 Y152.772 E19.22774
G1 X123.692 Y152.917 E19.29643
G1 X118.795 Y151.484 E19.46613
G1 X117.157 Y150.601 E19.52803
G1 X113.528 Y146.972 E19.69872
G1 X112.529 Y145.415 E19.76025
G1 X111.918 Y143.313 E19.83306
G1 X109.933 Y141.328 E19.92643
G1 X108.898 Y139.717 E19.99011
G1 X107.963 Y136.527 E20.10068
G1 X107.933 Y136.077 E20.11568
G1 X107.189 Y135.28 E20.15194
G1 X106.101 Y133.457 E20.22255
G1 X105.843 Y131.887 E20.27547
G1 X105.791 Y122.348 E20.59274
G1 X93.492 Y123.616 E21.00398
G1 X92.557 Y123.634 E21.03508
G1 X92.051 Y123.615 E21.05192
G1 X90.515 Y123.439 E21.10335
G1 X89.957 Y123.331 E21.12225
G1 X88.614 Y122.967 E21.16853
G1 X87.852 Y122.694 E21.19545
G1 X86.699 Y122.183 E21.2374
G1 X86.251 Y121.946 E21.25426
G1 X84.986 Y121.161 E21.30377
G1 X84.566 Y120.853 E21.3211
G1 X83.424 Y119.868 E21.37126
G1 X82.941 Y119.384 E21.394
G1 X82.079 Y118.386 E21.43786
G1 X81.685 Y117.849 E21.46001
G1 X80.959 Y116.686 E21.50561
G1 X80.626 Y116.056 E21.52931
G1 X80.133 Y114.931 E21.57016
G1 X79.862 Y114.156 E21.59747
G1 X79.531 Y112.931 E21.63968
G1 X79.415 Y112.339 E21.65974
G1 X79.245 Y110.883 E21.7085
G1 X79.222 Y110.379 E21.72528
G1 X79.267 Y108.933 E21.77339
G1 X79.333 Y108.303 E21.79446
G1 X79.515 Y107.254 E21.82987
G1 X79.855 Y105.931 E21.87531
G1 X80.041 Y105.383 E21.89456
G1 X80.592 Y104.092 E21.94124
G1 X80.933 Y103.437 E21.9658
G1 X81.458 Y102.577 E21.99931
G1 X82.21 Y101.528 E22.04224
G1 X82.573 Y101.095 E22.06104
G1 X83.481 Y100.16 E22.10439
G1 X84.342 Y99.403 E22.14252
G1 X84.875 Y98.999 E22.16476
G1 X86.018 Y98.262 E22.21
G1 X86.745 Y97.87 E22.23747
G1 X87.66 Y97.457 E22.27086
G1 X88.822 Y97.038 E22.31194
G1 X89.582 Y96.83 E22.33815
G1 X90.781 Y96.595 E22.37879
G1 X91.702 Y96.487 E22.40963
G1 X92.796 Y96.442 E22.44605
G1 X93.672 Y96.469 E22.47519
G1 X105.778 Y97.726 E22.88001
G1 X105.778 Y88.278 E23.19425
G1 X106.197 Y86.574 E23.25261
G1 X107.142 Y84.751 E23.32091
G1 X107.494 Y84.422 E23.33693
G1 X107.35 Y82.386 E23.40482
G1 X108.367 Y78.883 E23.52614
G1 X109.194 Y77.303 E23.58545
G1 X109.86 Y76.605 E23.61754
G1 X110.337 Y74.959 E23.67454
G1 X111.118 Y73.457 E23.73085
G1 X114.726 Y69.654 E23.9052
G1 X116.448 Y68.62 E23.97201
G1 X121.145 Y67.304 E24.13425
G1 X123.136 Y67.158 E24.20065
G1 X128.164 Y68.571 E24.37436
G1 X129.871 Y69.461 E24.43839
G1 X133.455 Y73.234 E24.61147
G1 X134.375 Y74.684 E24.66858
G1 X134.564 Y75.333 E24.69107
G1 X136.297 Y77.15 E24.77458
G1 X137.226 Y78.621 E24.83245
G1 X138.175 Y81.871 E24.94506
G1 X138.236 Y82.617 E24.96995
G1 X138.427 Y82.573 E24.97647
G1 X140.381 Y82.43 E25.04163
G1 X144.056 Y83.465 E25.16862
G1 X145.572 Y84.292 E25.22606
G1 X145.82 Y84.488 E25.23657
G1 X147.782 Y85.036 E25.30432
G1 X149.545 Y85.952 E25.3704
G1 X153.039 Y89.639 E25.53935
G1 X153.933 Y91.044 E25.59474
G1 X155.33 Y95.81 E25.75993
G1 X155.332 Y97.937 E25.83067
G1 X154.034 Y102.583 E25.99112
G1 X153.165 Y104.229 E26.05302
G1 X152.563 Y104.831 E26.08134
G1 X153.073 Y105.378 E26.10621
G1 X153.952 Y106.761 E26.16072
G1 X155.355 Y111.547 E26.3266
G1 X155.357 Y113.67 E26.39721
G1 X154.056 Y118.329 E26.5581
G1 X153.297 Y119.766 E26.61215
G1 X153.932 Y120.763 E26.65146
G1 X155.33 Y125.532 E26.81676
G1 X155.332 Y127.659 E26.8875
G1 X154.035 Y132.303 E27.04787
G1 X153.161 Y133.958 E27.11012
G1 X149.715 Y137.334 E27.27057
G1 X148.307 Y138.363 E27.32858
G1 X143.42 Y139.732 E27.49738
G1 X141.36 Y139.877 E27.56606
G1 X139.843 Y139.432 E27.61864
G1 X139.308 Y141.334 E27.68436
G1 X138.439 Y142.98 E27.74627
G1 X136.725 Y144.694 E27.82689
G1 X136.578 Y145.219 E27.84502
G0 F6000 X136.205 Y145.068
G1 F1200 X135.376 Y146.636 E27.90401
G1 X131.984 Y149.975 E28.06232
G1 X130.589 Y151.002 E28.11994
G1 X125.684 Y152.376 E28.28936
G1 X123.736 Y152.513 E28.35431
G1 X118.948 Y151.112 E28.52023
G1 X117.399 Y150.277 E28.57876
G1 X113.842 Y146.72 E28.74607
G1 X112.897 Y145.247 E28.80428
G1 X112.273 Y143.102 E28.87858
G1 X110.247 Y141.076 E28.97388
G1 X109.266 Y139.549 E29.03424
G1 X108.359 Y136.455 E29.14148
G1 X108.322 Y135.908 E29.15972
G1 X107.51 Y135.038 E29.1993
G1 X106.484 Y133.319 E29.26588
G1 X106.238 Y131.822 E29.31634
G1 X106.189 Y121.905 E29.64618
G1 X93.484 Y123.216 E30.071
G1 X92.572 Y123.234 E30.10134
G1 X92.066 Y123.215 E30.11818
G1 X90.591 Y123.046 E30.16756
G1 X90.033 Y122.938 E30.18646
G1 X88.749 Y122.59 E30.23071
G1 X87.987 Y122.317 E30.25763
G1 X86.886 Y121.829 E30.29769
G1 X86.438 Y121.592 E30.31454
G1 X85.223 Y120.838 E30.3621
G1 X84.803 Y120.53 E30.37943
G1 X83.707 Y119.585 E30.42756
G1 X83.224 Y119.101 E30.4503
G1 X82.402 Y118.149 E30.49213
G1 X82.008 Y117.612 E30.51429
G1 X81.313 Y116.499 E30.55793
G1 X80.98 Y115.869 E30.58163
G1 X80.511 Y114.799 E30.62049
G1 X80.24 Y114.024 E30.6478
G1 X79.924 Y112.854 E30.6881
G1 X79.808 Y112.262 E30.70817
G1 X79.645 Y110.865 E30.75495
G1 X79.622 Y110.361 E30.77173
G1 X79.665 Y108.975 E30.81785
G1 X79.731 Y108.345 E30.83892
G1 X79.909 Y107.323 E30.87342
G1 X80.234 Y106.06 E30.9168
G1 X80.42 Y105.512 E30.93605
G1 X80.947 Y104.277 E30.9807
G1 X81.288 Y103.622 E31.00527
G1 X81.799 Y102.786 E31.03785
G1 X82.517 Y101.785 E31.07883
G1 X82.88 Y101.352 E31.09762
G1 X83.745 Y100.46 E31.13895
G1 X84.584 Y99.722 E31.17611
G1 X85.117 Y99.318 E31.19836
G1 X86.235 Y98.598 E31.24258
G1 X86.91 Y98.235 E31.26808
G1 X87.825 Y97.822 E31.30147
G1 X88.928 Y97.424 E31.34047
G1 X89.659 Y97.223 E31.36568
G1 X90.858 Y96.988 E31.40632
G1 X91.718 Y96.887 E31.43512
G1 X92.812 Y96.842 E31.47154
G1 X93.631 Y96.867 E31.49879
G1 X106.178 Y98.17 E31.91835
G1 X106.178 Y88.324 E32.24583
G1 X106.573 Y86.717 E32.30087
G1 X107.466 Y84.996 E32.36536
G1 X107.935 Y84.557 E32.38672
G1 X107.89 Y84.371 E32.39309
G1 X107.754 Y82.429 E32.45784
G1 X108.741 Y79.03 E32.57556
G1 X109.52 Y77.541 E32.63145
G1 X110.216 Y76.811 E32.665
G1 X110.709 Y75.111 E32.72387
G1 X111.448 Y73.69 E32.77714
G1 X114.977 Y69.97 E32.94769
G1 X116.609 Y68.99 E33.011
G1 X121.213 Y67.7 E33.17003
G1 X123.096 Y67.562 E33.23282
G1 X128.014 Y68.944 E33.40273
G1 X129.629 Y69.786 E33.46331
G1 X133.137 Y73.48 E33.63275
G1 X134.007 Y74.851 E33.68675
G1 X134.208 Y75.539 E33.71059
G1 X135.981 Y77.399 E33.79606
G1 X136.858 Y78.787 E33.85067
G1 X137.779 Y81.942 E33.95998
G1 X137.877 Y83.132 E33.9997
G1 X138.456 Y82.972 E34.01968
G1 X140.341 Y82.834 E34.08254
G1 X143.903 Y83.837 E34.20562
G1 X145.38 Y84.643 E34.26158
G1 X145.631 Y84.85 E34.2724
G1 X147.635 Y85.41 E34.34161
G1 X149.302 Y86.276 E34.40409
G1 X152.719 Y89.882 E34.56932
G1 X153.565 Y91.212 E34.62175
G1 X154.93 Y95.869 E34.78316
G1 X154.932 Y97.883 E34.85014
G1 X153.661 Y102.432 E35.00724
G1 X152.839 Y103.989 E35.0658
G1 X152.005 Y104.823 E35.10503
G1 X152.735 Y105.593 E35.14032
G1 X153.584 Y106.929 E35.19296
G1 X154.955 Y111.606 E35.35507
